public/illustrations/search.svg

<?xml version="1.0" encoding="UTF-8"?>
<svg width="602px" height="132px" viewBox="0 0 602 132" version="1.1" xmlns="http://www.w3.org/2000/svg" xmlns:xlink="http://www.w3.org/1999/xlink">
    <!-- Generator: Sketch 48.2 (47327) - http://www.bohemiancoding.com/sketch -->
    <title>search</title>
    <desc>Created with Sketch.</desc>
    <defs></defs>
    <g id="illistrations" stroke="none" stroke-width="1" fill="none" fill-rule="evenodd">
        <g id="search" transform="translate(1.000000, 1.000000)" stroke="#9BC4BB" stroke-width="2">
            <path d="M558.210807,78.0781592 L576.128225,98.689791 L570.055408,103.96881 L552.308272,83.5530654 C547.214339,87.1885528 540.999717,89.3238948 534.292183,89.3238948 C517.009987,89.3238948 503,75.1483581 503,57.6619474 C503,40.1755367 517.009987,26 534.292183,26 C551.574378,26 565.584365,40.1755367 565.584365,57.6619474 C565.584365,65.4415969 562.811323,72.5659145 558.210807,78.0781592 Z M554.005594,73.5709239 C557.336396,69.3261574 559.325929,63.9552948 559.325929,58.114261 C559.325929,44.3749383 548.318082,33.2370166 534.739214,33.2370166 C521.160346,33.2370166 510.152499,44.3749383 510.152499,58.114261 C510.152499,71.8535837 521.160346,82.9915054 534.739214,82.9915054 C539.733819,82.9915054 544.380583,81.4846231 548.259658,78.8956676 L548.096324,78.7077737 L554.005594,73.5709239 Z" id="Combined-Shape"></path>
            <rect id="Path" x="0" y="0" width="600" height="130" rx="7"></rect>
        </g>
    </g>
</svg>

<svg width="602" height="132" xmlns="http://www.w3.org/2000/svg">
    <g transform="translate(1 1)" stroke="#9BC4BB" stroke-width="2" fill="none" fill-rule="evenodd">
        <path d="M558.21 78.078l17.918 20.612-6.073 5.279-17.747-20.416a30.9 30.9 0 0 1-18.016 5.77C517.01 89.324 503 75.149 503 57.663S517.01 26 534.292 26c17.282 0 31.292 14.176 31.292 31.662 0 7.78-2.773 14.904-7.373 20.416zm-4.204-4.507a24.956 24.956 0 0 0 5.32-15.457c0-13.74-11.008-24.877-24.587-24.877s-24.587 11.138-24.587 24.877c0 13.74 11.008 24.878 24.587 24.878 4.995 0 9.642-1.507 13.52-4.096l-.163-.188 5.91-5.137z"/>
        <rect width="600" height="130" rx="7"/>
    </g>
</svg>
